!!!!SEGMENT: pl-gd--ee-1638--006-009_marenzio-luca--il-quinto-libro-de-madrigalia-a-cinque-voci-oime-l-antica-fiamma.krn
!!!cenid: 15xx:891
!!!COM: Marenzio, Luca
!!!COM-rismID: pe30003955
!!!CDT: ~1553-1599/08/22
!!!CNT: Italian
!!!GTL: Il Quinto libro de madrigalia a cinque voci
!!!OTL: Oime l'antica fiamma
!!!OMV: 009
!!!PDT: 1585
!!!AGN:
!!!SMS-siglum: PL-GD
!!!SMS-shelfmark: Ee 1638
!!!SMS-variant:
!!!SMS-altvar:
!!!SMS-shelfwork: 006-009 G
!!!NIFC-rismSourceID: 1001202747
!!!NIFC-rismChildID: 990039296
!!!NIFC-islandoraID: pl-gd:57883
!!!URL-pdf-islandora: https://repozytorium.nifc.pl/islandora/object/pl-gd%3A57883/datastream/PDF/view
!!!URL-scan: https://polish.musicsources.pl/pl/lokalizacje/galeria/klocki-introligatorskie/655 @EN{Scan on Polish Music Sources Website} @PL{Skany w portalu Dziedzictwo Muzyki Polskiej w otwartym dostępie}
!!!ONB-nifc:
!!!AIN: 1 alto 1 bass 1 soprn 1 tenor 1 vox
!!!key: G
**kern	**text	**kern	**text	**kern	**text	**kern	**text	**kern	**text
*part5	*part5	*part4	*part4	*part3	*part3	*part2	*part2	*part1	*part1
*staff5	*staff5	*staff4	*staff4	*staff3	*staff3	*staff2	*staff2	*staff1	*staff1
*I"QVINTO	*	*I"BASSO	*	*I"TENORE 	*	*I"ALTO	*	*I"CANTO	*
*I'V	*	*I'B	*	*I'T	*	*I'A	*	*I'S	*
*ICvox	*	*ICvox	*	*ICvox	*	*ICvox	*	*ICvox	*
*Ivox	*	*Ibass	*	*Itenor	*	*Ialto	*	*Isoprn	*
*clefC4	*	*clefF4	*	*clefC4	*	*clefC3	*	*clefC1	*
*k[]	*	*k[]	*	*k[]	*	*k[]	*	*k[]	*
*G:	*	*G:	*	*G:	*	*G:	*	*G:	*
*M2/1	*	*M2/1	*	*M2/1	*	*M2/1	*	*M2/1	*
*met(C)	*	*met(C)	*	*met(C)	*	*met(C)	*	*met(C)	*
=1-	=1-	=1-	=1-	=1-	=1-	=1-	=1-	=1-	=1-
1B	OI-	1G	OI-	1d	OI-	2r	.	1r	.
.	.	.	.	.	.	1g	Oi-	.	.
1A	-me	1D	-me	0d	-me	.	.	1dd	OI-
.	.	.	.	.	.	2f#X\	-me	.	.
=2-	=2-	=2-	=2-	=2-	=2-	=2-	=2-	=2-	=2-
2.G/	Oi-	2r	.	.	Oi-	2r	.	1b	-me
*	*	*	*ij	*	*	*	*	*	*
.	.	1G	Oi-	.	.	1g	Oi-	.	.
4A/	.	.	.	.	.	.	.	.	.
2B\	.	.	.	2r	.	.	.	2r	.
2G/	-me	2C/	-me	1c\	-me	2e\	-me	1ee\	Oi-
*	*	*	*Xij	*	*	*	*	*	*
=3-	=3-	=3-	=3-	=3-	=3-	=3-	=3-	=3-	=3-
2r	.	00r	.	.	.	2g\	oi-	.	.
2e\	l'an-	.	.	4A/	l'an-	4a\	-me	4cc#X\	-me
.	.	.	.	4A/	-ti-	4a\	l'an-	4cc#\	l'an-
4f\	-ti-	.	.	4d\	-ca	4a\	-ti-	4dd\	-ti-
4e\	-ca	.	.	4G/	fiam-	4g\	-ca	4b\	-ca
2d\	fiam-	.	.	2A/	-ma	2e\	fiam-	2a\	fiam-
=4-	=4-	=4-	=4-	=4-	=4-	=4-	=4-	=4-	=4-
4B\	-ma	.	.	4E/	Ch'e-	2e\	-ma	4g#X/	-ma
4.c\	Ch'e-	.	.	4.A/	-ra	.	.	4.a\	Ch'e-
.	.	.	.	.	.	4r	.	.	.
8c\	-ra	.	.	8A/	ſo-	.	.	8a\	-ra
2d\	ſo-	.	.	4F/	-pi-	4.fny\	Ch'e-	4a\	ſo-
.	.	.	.	1G	-ta	.	.	1gny	-pi-
.	.	.	.	.	.	8f\	-ra	.	.
!	!	!	!	!	!	!LO:SIC:v:t=custos d	!	!	!
2c\	-pi-	.	.	.	.	4e\	ſo-	.	.
!	!	!	!	!	!	!LO:LB:g=original	!	!	!
.	.	.	.	.	.	2d\	-pi-	.	.
!LO:SIC:v:t=custos c	!	!	!	!	!	!	!	!	!
4B\	.	.	.	.	.	.	.	.	.
!LO:LB:g=original	!	!	!	!	!	!	!	!	!
=5-	=5-	=5-	=5-	=5-	=5-	=5-	=5-	=5-	=5-
!	!	!	!	!	!	!	!	!LO:SIC:v:t=custos cc	!
2c\	-ta	2r	.	2C/	.	1e	-ta	1g	-ta
4r	.	2C/	all'-	4r	.	.	.	.	.
!	!	!	!	!LO:SIC:v:t=custos B	!	!	!	!	!
4G/	all'-	.	.	4c\	al-	.	.	.	.
!	!	!	!	!	!	!	!	!LO:LB:g=original	!
2G#X/	-au-	2E\	-au-	2B\	-l'au-	2r	.	2r	.
4A\	-ra	4AA/	-ra	2e\	-ra	2c/	all'-	2ccny\	all'-
2e\	d u-	2A\	d u-	.	.	.	.	.	.
=6-	=6-	=6-	=6-	=6-	=6-	=6-	=6-	=6-	=6-
.	.	.	.	0r	.	2e\	-au-	2b\	-au-
4B\	-na	4G\	-na	.	.	.	.	.	.
2d\	ſo-	2F\	ſo-	.	.	2A/	-ra	4a\	-ra
.	.	.	.	.	.	.	.	2a\	d'u-
2e\	-la	2E\	-la	.	.	4c/	d'u-	.	.
.	.	.	.	.	.	4B/	-na	4g/	-na
2r	.	2r	.	.	.	2d\	ſo-	2f/	ſo-
=7-	=7-	=7-	=7-	=7-	=7-	=7-	=7-	=7-	=7-
1r	.	4r	.	4r	.	2e\	-la	1e	-la
.	.	2A\	d'u-	2c\	d'u-	.	.	.	.
.	.	.	.	.	.	2r	.	.	.
!	!	!LO:SIC:v:t=custos F	!	!	!	!	!	!	!
.	.	4G\	-na	4B\	-na	.	.	.	.
2r	.	2F\	ſo-	2d\	ſo-	2r	.	2r	.
4r	.	4E\	-la	4e\	-la	4r	.	4r	.
4B\	Dol-	4E\	Dol-	4E/	Dol-	4e\	Dol-	4g#X/	Dol-
=8-	=8-	=8-	=8-	=8-	=8-	=8-	=8-	=8-	=8-
4.c#X\	-ciſ-	4.AA/	-ciſ-	4.E/	-ciſ-	4.e\	-ciſ-	4.a\	-ciſ-
8c#\	-si-	8AA/	-si-	8E/	-si-	8e\	-si-	8a\	-si-
4c#\	-ma	4AA/	-ma	4E/	-ma	4e\	-ma	4a\	-ma
4d\	pa-	4D/	pa-	4D/	pa-	4f#X\	pa-	4a\	pa-
2d\	-ro-	2GG/	-ro-	2D/	-ro-	2g\	-ro-	2b\	-ro-
4d\	-la	4GG/	-la	2G/	-la	2g\	-la	4b\	-la
4e\	Si	4C/	Si-	.	.	.	.	4cc\	Si
=9-	=9-	=9-	=9-	=9-	=9-	=9-	=9-	=9-	=9-
*lig	*	*	*	*	*	*	*	*	*
1cny	deſ-	8FF/	-de-	2A/	Si	2f#yX\	Si	8a\	deſ.-
.	.	8GG/	.	.	.	.	.	8b\	.
.	.	8AA/	.	.	.	.	.	8cc\	.
!	!	!	!	!	!	!	!	!LO:SIC:v:t=custos ee	!
.	.	8BB/	.	.	.	.	.	8dd\	.
!	!	!	!	!	!	!	!	!LO:LB:g=original	!
.	.	4C/	.	2G/	de-	4e\	de-	4ee\	.
!	!	!	!	!	!	!LO:SIC:v:t=custos g	!	!	!
.	.	8BB/	.	.	.	4f#X\	.	8dd\	.
.	.	8AA/	.	.	.	.	.	8cc\	.
!	!	!	!	!	!	!LO:LB:g=original	!	!	!
1d	.	4GG/	.	0G	-ſta	1g	.	4b\	.
.	.	4FF/	.	.	.	.	.	2cc\	.
.	.	2GG/	.	.	.	.	.	.	.
.	.	.	.	.	.	.	.	4b\	.
!	!	!LO:SIC:v:t=custos GG	!	!	!	!	!	!	!
*Xlig	*	*	*	*	*	*	*	*	*
=10-	=10-	=10-	=10-	=10-	=10-	=10-	=10-	=10-	=10-
!LO:SIC:v:t=custos c	!	!	!	!	!	!	!	!	!
1c	-ta	0C	-ſta	.	ar-	1g	-ſta	1cc	-ta
!LO:LB:g=original	!	!	!	!	!	!	!	!	!
4r	.	.	.	1r	.	4r	.	4r	.
2c\	e	.	.	.	.	2e\	E-	2gny/	et
2A/	nel	.	.	.	.	2e\	-nel	2cc\	nel-
=11-	=11-	=11-	=11-	=11-	=11-	=11-	=11-	=11-	=11-
.	.	1r	.	2r	.	.	.	.	.
4Gny/	mio	.	.	.	.	4g\	mio-	4b\	-mio
2d\	cor	.	.	4r	.	2f#X\	-cor	2a\	cor
.	.	.	.	4.d\	-de e	.	.	.	.
2G/	ar-	4r	.	.	.	2r	.	4r	.
.	.	.	.	8c\	sfa-	.	.	.	.
!	!	!	!	!LO:SIC:v:t=custos A	!	!	!	!	!
.	.	4G\	ar-	4B\	-usl-	.	.	4.dd\	ar-
!	!	!	!	!LO:LB:g=original	!	!	!	!	!
4A/	-dea	4F#X\	-de e-	4A/	.	4r	.	.	.
.	.	.	.	.	.	.	.	8cc\	-de e
4B\	sfa-	4G\	sfa-	4G/	.	4.d\	ar-	4b\	sfa-
=12-	=12-	=12-	=12-	=12-	=12-	=12-	=12-	=12-	=12-
1d	-usl-	1D	-usl-	4F#X/	.	.	.	4a\	-usl
.	.	.	.	.	.	8c/	-de e	.	.
.	.	.	.	4G/	.	4B/	sfa-	2g/	.
.	.	.	.	2A\	.	2A/	-usl-	.	.
.	.	.	.	.	.	.	.	4f#X/	.
2d\	-la	1GG	-la	2B\	.	1G	-la	1g	la
2.B\	laſ-	.	.	1d\	.	.	.	.	.
=13-	=13-	=13-	=13-	=13-	=13-	=13-	=13-	=13-	=13-
.	.	1G	Laſ-	.	.	2r	.	1g	Laſ-
4c\	.	.	.	.	.	.	.	.	.
2d\	.	.	.	2B\	-la	1g	Laſ-	.	.
2c\	-ſo	0C	-ſo	1r	.	.	.	1e	-ſo
1G/	Laſ-	.	.	.	.	2e\	-ſo	.	.
=14-	=14-	=14-	=14-	=14-	=14-	=14-	=14-	=14-	=14-
!	!	!	!	!	!	!	!	!LO:SIC:v:t=custos cc	!
.	.	.	.	1c	Laſ-	1g	laſ-	1ee	laſ-
4E/	-ſo	.	.	.	.	.	.	.	.
4e\	ch'in-	.	.	.	.	.	.	.	.
!	!	!	!	!	!	!	!	!LO:LB:g=original	!
4.e\	-cõtr'	1r	.	4A/	-ſo	4a\	-ſo	4cc\	-ſo
.	.	.	.	4A/	ch'in-	4e\	ch'in-	4cc\	ch'in-
8d\	A-	.	.	.	.	.	.	.	.
1c\	-mo-	.	.	4.A/	-cen-	4e\	-con-	4.cc\	-con-
!	!	!	!	!	!	!LO:SIC:v:t=custos f	!	!	!
.	.	.	.	.	.	4e\	-tr' A-	.	.
.	.	.	.	8G/	-tre A-	.	.	8b\	-tre A-
!	!	!	!	!	!	!LO:LB:g=original	!	!	!
=15-	=15-	=15-	=15-	=15-	=15-	=15-	=15-	=15-	=15-
.	.	00r	.	2Fny/	-mo-	2fny\	-mo-	2a\	-mo-
2c\	-re	.	.	2C/	-re	2e\	-re	2g/	-re
4c\	quã-	.	.	4F/	Qua-	4f\	Quan-	4a\	Quan-
8c\	-do	.	.	8F/	-do	8f\	-do	8a\	-do
!LO:SIC:v:t=custos b	!	!	!	!	!	!	!	!	!
8c\	le	.	.	8F/	le-	8f\	le	8a\	le
!LO:LB:g=original	!	!	!	!	!	!	!	!	!
4B\	pri-	.	.	4G/	-pri-	4d\	pri-	4g/	pri-
!	!	!	!	!LO:SIC:v:t=custos A	!	!	!	!	!
4A/	-me	.	.	4D/	-me	4a\	-me	4fny/	-me
!	!	!	!	!LO:LB:g=original	!	!	!	!	!
=16-	=16-	=16-	=16-	=16-	=16-	=16-	=16-	=16-	=16-
4c#X\	ſu-	.	.	4A/	ſue	4a\	ſue	4e/	ſue
4d\	dol-	.	.	4B-X\	dol-	4g\	dol-	4d/	dol-
2c#\	-ciz-	.	.	1A	-cez-	1a	-cez-	1e	-cez-
2c#\	-ze	.	.	.	.	.	.	.	.
2.f\	ſtil-	.	.	2F/	-ze	2a\	-ze	2cc\	-ze
=17-	=17-	=17-	=17-	=17-	=17-	=17-	=17-	=17-	=17-
.	.	00r	.	1c	ſtil-	1g	ſtil-	1cc	ſtil-
8e\	.	.	.	.	.	.	.	.	.
8d\	.	.	.	.	.	.	.	.	.
2e\	.	.	.	.	.	.	.	.	.
1f	-la	.	.	1F	-la	2a\	-la	2cc\	-la
.	.	.	.	.	.	4r	.	4r	.
!	!	!	!	!	!	!	!	!LO:SIC:v:t=custos g	!
.	.	.	.	.	.	4f\	in	4a\	in
!	!	!	!	!	!	!	!	!LO:LB:g=original	!
=18-	=18-	=18-	=18-	=18-	=18-	=18-	=18-	=18-	=18-
0r	.	.	.	0r	.	4e\	un	4g/	un
.	.	.	.	.	.	4.f\	te-	4.a\	te-
.	.	.	.	.	.	8e\	-ne-	8g/	-ne-
!	!	!	!	!	!	!LO:SIC:v:t=custos c#	!	!	!
.	.	.	.	.	.	4d\	-ro	4f/	-ro
!	!	!	!	!	!	!LO:LB:g=original	!	!	!
.	.	.	.	.	.	2c#X/	co-	2e/	co-
.	.	.	.	.	.	1d\	-re	4d/	-re
.	.	.	.	.	.	.	.	4dd\	Ne
=19-	=19-	=19-	=19-	=19-	=19-	=19-	=19-	=19-	=19-
2G/	Ne	4r	.	1r	.	.	.	2b\	ſde-
.	.	4G\	Ne	.	.	.	.	.	.
2B\	ſde-	2E\	ſde-	.	.	4r	.	2g/	-gno
.	.	.	.	.	.	4g\	Ne	.	.
1cny	-gno	2C/	-gno	4r	.	2e\	ſde-	4r	.
.	.	.	.	4c\	Ne	.	.	4ee\	Ne
.	.	1Fny\	ne	2A/	ſde-	2f\	-gno	2cc\	ſde-
=20-	=20-	=20-	=20-	=20-	=20-	=20-	=20-	=20-	=20-
2c\	ne	.	.	2F/	-gno	2r	.	2a\	-gno
2c\	do-	2E\	do-	2G/	ne	2e\	ne	1cc	ne
1d	-lo-	1D	-lo-	2A/	do-	2f#X\	do-	.	.
.	.	.	.	1d\	-lo-	2.g\	-lo-	2b\	do-
=21-	=21-	=21-	=21-	=21-	=21-	=21-	=21-	=21-	=21-
!	!	!LO:SIC:v:t=custos GG	!	!	!	!	!	!	!
1d	-re	1D	-re	.	.	.	.	2a\	-lo-
.	.	.	.	.	.	8f#X\	.	.	.
.	.	.	.	.	.	8e\	.	.	.
.	.	.	.	2A/	-re	2f#X\	.	2a\	-re
4d\	Ne	4GG/	Ne	4G/	Ne	1g	-re	4b\	Ne
2d\	tem-	2GG/	tem-	2G/	tem-	.	.	2b\	tem-
!LO:SIC:v:t=custos e	!	!	!	!	!	!	!	!LO:SIC:v:t=custos cc	!
4d\	-po	4GG/	-po	4G/	-po	.	.	4b\	-po
!LO:LB:g=original	!	!	!	!	!	!	!	!LO:LB:g=original	!
=22-	=22-	=22-	=22-	=22-	=22-	=22-	=22-	=22-	=22-
4e\	ne	4.C/	ne	4G/	ne	2r	.	4cc\	ne
!	!	!	!	!LO:SIC:v:t=custos B	!	!	!	!	!
4e\	ra-	.	.	4c\	ra-	.	.	4a\	ra-
.	.	8D/	ra-	.	.	.	.	.	.
!	!	!	!	!LO:LB:g=original	!	!	!	!	!
2e\	-gion	4E\	-gion-	4Bny\	-gion-	4r	.	4g/	-fion-
.	.	4C/	-ne	4c\	-ne	4e\	Ne	4g/	-ne
1r	.	2F\	mor-	2c\	mor-	2fny\	mor-	2a\	mor-
.	.	2A\	-te	4A/	-te	2cny/	-te	2e/	-te
.	.	.	.	2c\	va-	.	.	.	.
=23-	=23-	=23-	=23-	=23-	=23-	=23-	=23-	=23-	=23-
2r	.	1G	va-	.	.	1d	va-	1g	va-
.	.	.	.	8B\	.	.	.	.	.
.	.	.	.	8A\	.	.	.	.	.
2G/	Chi	.	.	2B\	.	.	.	.	.
4G/	ſpe-	2C/	-le	4.c\	-le	2e\	-le	1g	-le
4F/	-gne an-	.	.	.	.	.	.	.	.
.	.	.	.	16B\	.	.	.	.	.
.	.	.	.	16A\	.	.	.	.	.
!	!	!	!	!	!	!LO:SIC:v:t=custos g	!	!	!
4E/	-tic'	2E\	Chi	2G/	.	2B/	Chi	.	.
4D/	in-	.	.	.	.	.	.	.	.
!	!	!	!	!	!	!LO:LB:g=original	!	!	!
=24-	=24-	=24-	=24-	=24-	=24-	=24-	=24-	=24-	=24-
2C/	-cen-	4E\	ſpe-	2r	.	4g\	ſpe-	2r	.
.	.	4D\	-gne an	.	.	4f\	-gn'an-	.	.
2G/	-dio	4C/	-tic'-	2c\	Chi	4e\	-tic'	2ee\	Chi
.	.	4BB/	-in-	.	.	4d\	in-	.	.
2r	.	2AA/	-cen-	4c\	ſpe-	2c/	-cen-	4ee\	ſpe-
.	.	.	.	4B\	-gne an-	.	.	4dd\	-gne an-
2c\	Chi	2AA/	-dio	4A/	-tic'-	2e\	-dio	4cc\	-tic'-
.	.	.	.	4G/	-in-	.	.	4b\	-in-
=25-	=25-	=25-	=25-	=25-	=25-	=25-	=25-	=25-	=25-
!	!	!LO:SIC:v:t=custos A	!	!	!	!	!	!	!
4c\	ſpe-	2A\	Chi	2F/	-cen-	2r	.	2a\	-cen-
4B\	-gn' an-	.	.	.	.	.	.	.	.
4A\	-tic'	4A\	ſpe-	2c\	-dio	2e\	Chi	1a	-dio
4B\	in-	4G\	-gn'an-	.	.	.	.	.	.
2c\	-cen-	4F\	-tic'	2r	.	4a\	ſpe-	.	.
.	.	4E\	in-	.	.	4g\	-'gn an-	.	.
*	*	*	*	*	*	*	*	*	*ij
2d\	-dio	2D/	-cen-	2A\	Il	4f\	-tic'	2dd\	Chi
.	.	.	.	.	.	4e\	in-	.	.
=26-	=26-	=26-	=26-	=26-	=26-	=26-	=26-	=26-	=26-
2r	.	1GG	-dio	4B#X\	fa im-	2d\	-cen-	4dd\	ſpe-
!	!	!	!	!LO:SIC:v:t=custos G	!	!	!	!	!
.	.	.	.	4A/	-mor-	.	.	4cc\	-'gn an-
!LO:SIC:v:t=custos c	!	!	!	!LO:LB:g=original	!	!	!	!	!
2B\	Il	.	.	2G/	-ta-	2d\	-d'il	4b\	-tic'
.	.	.	.	.	.	.	.	4a\	in-
*	*	*	*	*	*	*	*	*lig	*
!LO:LB:g=original	!	!	!	!	!	!	!	!	!
2c\	fà im-	0r	.	1C	-le	4e\	fa	1g	-cen-
.	.	.	.	.	.	4f\	im-	.	.
2e\	-mor-	.	.	.	.	2.g\	-mor-	.	.
=27-	=27-	=27-	=27-	=27-	=27-	=27-	=27-	=27-	=27-
1d	-ta-	.	.	2r	.	.	.	1a	-di-
.	.	.	.	.	.	8f\	-ta-	.	.
.	.	.	.	.	.	8e\	.	.	.
.	.	.	.	2d\	Chi	4f\	.	.	.
!	!	!	!	!	!	!LO:SIC:v:t=custos d	!	!	!
.	.	.	.	.	.	4e\	.	.	.
!	!	!	!	!	!	!LO:LB:g=original	!	!	!
*	*	*	*	*	*	*	*	*Xlig	*
1G	-le	2r	.	4g\	ſpe-	2d\	.	2b\	-o
.	.	.	.	4f\	-gn'an-	.	.	.	.
.	.	2E\	Il	4e\	-tic'	2g\	-le	4r	.
*	*	*	*	*	*	*	*	*	*Xij
.	.	.	.	4d\	in-	.	.	4g/	Il
=28-	=28-	=28-	=28-	=28-	=28-	=28-	=28-	=28-	=28-
1r	.	2F\	fa im-	2.c\	-cend'-	4r	.	4a\	fà im-
.	.	.	.	.	.	4f\	Il	4b\	-mor-
.	.	2A\	-mor-	.	.	4e\	fa im-	2cc\	-ta-
.	.	.	.	4A/	-il	4f\	-mor-	.	.
1d	il	2G\	-ta-	4Bny\	fa im-	2g\	-ta-	2b\	-le
.	.	.	.	4c\	-mor-	.	.	.	.
.	.	4G\	-le	2d\	-ta-	2g\	-le	4r	.
.	.	4BB/	il	.	.	.	.	4d/	Il
=29-	=29-	=29-	=29-	=29-	=29-	=29-	=29-	=29-	=29-
2c\	fa im-	2C/	fa im-	2G/	-le	4r	.	4e/	fà im-
.	.	.	.	.	.	4c/	il	4f/	-mor-
2G/	-mor-	2E\	-mor-	4r	.	4B/	fa im-	2.g/	-ta-
.	.	.	.	4E/	Il	4c/	-mor-	.	.
1A	-ta-	1D	-ta-	4A\	fa im-	1d	-ta-	.	.
.	.	.	.	4D/	-mor-	.	.	8f#X/	.
.	.	.	.	.	.	.	.	8e/	.
.	.	.	.	2d\	-ta-	.	.	2f#X/	.
=30-	=30-	=30-	=30-	=30-	=30-	=30-	=30-	=30-	=30-
00G	-le.	00GG	-le.	00c	-le.	00d	-le.	00g	-le.
=31-	=31-	=31-	=31-	=31-	=31-	=31-	=31-	=31-	=31-
.	.	.	.	.	.	.	.	.	.
==	==	==	==	==	==	==	==	==	==
*-	*-	*-	*-	*-	*-	*-	*-	*-	*-
!!!system-decoration: [(s1,s2,s3,s4,s5)]
!!!ENC: Andrzej Gręziak
!!!END: 2022-06-08
!!!ENC: Natalia Wrzos
!!!END: 2022-07-19
!!!YEC: Copyright 2022 Narodowy Instytut Fryderyka Chopina (https://polishscores.org)
!!!YEM: License CC-BY-4.0 (https://creativecommons.org/licenses/by/4.0)
